X: 13055
T: Finlay's Delight
R: reel
M: 4/4
K: Gmajor
DDAD BDAD|DFAF EDB,C|D3E FEFA|B2 AF EDB,C|
DDAD BDAD|DFAF EDB,C|D3E FEFA|B2 AF E2 Bc||
d3f e3f|defd edBc|d2 df e2 ef|dBAF E3A|
defd defd|defd (3efe de|fdef dBAB|dBAF EDB,C||
G2 dG eGdG|GBdB AGEF|~G3A BABd|egdB AGEF|
G2 dG eGdG|GBdB AGEF|GFGA BABd|egdB A2 ef||
~g3b a2 ab|gabg agef|gfgb a2 ab|gedB A2 ef|
gabg gabg|gabg (3aba ga|bgab gede|gedB AGEF||

